logos/httpie.svg

<?xml version="1.0" encoding="UTF-8"?>
<svg width="512px" height="148px" viewBox="0 0 512 148" version="1.1" xmlns="http://www.w3.org/2000/svg" xmlns:xlink="http://www.w3.org/1999/xlink" preserveAspectRatio="xMidYMid">
    <title>httpie</title>
    <g fill="#000000">
        <path d="M382.14078,40.1002215 C398.869035,40.1002215 407.525898,53.8760628 407.525898,76.7063888 C407.525898,100.432144 398.56534,114.361399 381.702458,114.361399 C372.782601,114.361399 366.201506,110.942485 362.018659,103.134088 C361.597681,102.407079 360.745179,102.047968 359.930897,102.254631 C359.116615,102.461294 358.538544,103.183482 358.515212,104.023256 L358.515212,129.956277 C358.516045,130.615837 358.254404,131.248622 357.788024,131.715002 C357.321645,132.181382 356.688859,132.44233 356.029299,132.44233 L340.900921,132.44233 C340.238367,132.447197 339.601228,132.187501 339.130958,131.720758 C338.660689,131.254015 338.396222,130.61885 338.396222,129.956277 L338.396222,44.5241451 C338.406542,43.1481801 339.524917,42.0381932 340.900921,42.0382319 L356.029299,42.0382319 C357.402231,42.0382319 358.515212,43.1512132 358.515212,44.5241451 L358.515212,50.4571495 C358.515212,52.3763746 361.085659,53.0557741 362.006136,51.3713644 C366.307955,43.4940879 373.161436,40.1002215 382.14078,40.1002215 Z M261.348568,24.3957605 C262.695596,24.3957605 263.79239,25.4671406 263.833299,26.8042459 L263.834482,26.8816757 L263.834482,42.0382319 L292.165751,42.0382319 L292.165751,26.8816757 C292.164919,26.2221157 292.42656,25.5893303 292.89294,25.1229506 C293.336,24.6798899 293.929242,24.4223555 294.552949,24.3977097 L294.651665,24.3957605 L309.648546,24.3957605 C310.994374,24.3974575 312.08931,25.4683807 312.130148,26.8043143 L312.131329,26.8816757 L312.131329,42.0382319 L327.995462,42.0382319 C329.339499,42.0482865 330.430966,43.1159259 330.479725,44.4500191 L330.481375,44.527276 L330.481375,56.4559021 C330.481375,57.8029297 329.409997,58.8997235 328.072892,58.9406324 L327.995462,58.9418153 L312.131329,58.9418153 L312.131329,86.3713938 C312.131329,92.0069652 314.185181,94.674469 320.20585,94.674469 C322.019408,94.674469 323.986379,94.3149078 325.806829,93.8999143 L326.322712,93.780099 C326.407941,93.759966 326.492774,93.739773 326.577177,93.7195527 C327.268801,93.5505241 327.999706,93.6861583 328.584637,94.0920779 C329.144137,94.4803488 329.518708,95.0802623 329.623439,95.7504702 L329.63604,95.8422846 L331.264094,109.661958 C331.399989,110.865497 330.655225,111.993847 329.49515,112.341985 L329.130573,112.449737 L329.130573,112.449737 L328.769108,112.555055 L328.769108,112.555055 L328.410216,112.657898 L328.410216,112.657898 L328.05336,112.758226 L328.05336,112.758226 L327.698002,112.855996 L327.698002,112.855996 L327.343603,112.951169 L327.343603,112.951169 L326.989625,113.043702 L326.989625,113.043702 L326.635531,113.133554 L326.635531,113.133554 L326.280783,113.220685 L326.280783,113.220685 L325.924842,113.305053 L325.924842,113.305053 L325.56717,113.386617 C325.507384,113.399975 325.447503,113.413214 325.387517,113.426334 L325.02624,113.503615 C324.965786,113.516254 324.905203,113.528771 324.844482,113.541167 L324.47839,113.614072 L324.47839,113.614072 L324.108415,113.684007 L324.108415,113.684007 L323.734019,113.750933 L323.734019,113.750933 L323.354665,113.814807 L323.354665,113.814807 L322.969813,113.875589 L322.969813,113.875589 L322.578927,113.933237 L322.578927,113.933237 L322.181468,113.987711 L322.181468,113.987711 L321.776897,114.038969 C321.708846,114.047241 321.640477,114.055378 321.571777,114.063379 L321.155532,114.109735 C321.085468,114.117186 321.015051,114.124498 320.944271,114.131671 L320.51514,114.173034 C320.442861,114.179647 320.370196,114.18612 320.297134,114.19245 L319.853906,114.228727 C319.629819,114.246008 319.401956,114.261998 319.170014,114.276673 L318.700602,114.304266 C318.463086,114.31718 318.22129,114.328764 317.974911,114.338995 L317.475952,114.357647 C317.391743,114.360453 317.307003,114.363107 317.22172,114.365608 L316.703419,114.378772 C316.615919,114.380658 316.527855,114.382389 316.439214,114.383965 L315.900359,114.391548 L315.900359,114.391548 L315.34713,114.395838 C315.253697,114.395838 315.159643,114.395838 315.064957,114.395838 C299.080504,114.395838 292.301757,103.787796 292.16778,90.6281783 L292.165751,90.2286293 L292.165751,58.9418153 L263.834482,58.9418153 L263.834482,86.3713938 C263.834482,92.0069652 265.888334,94.674469 271.909003,94.674469 C273.722561,94.674469 275.689532,94.3149078 277.509982,93.8999143 L278.025864,93.780099 C278.111094,93.759966 278.195927,93.739773 278.28033,93.7195527 C278.971954,93.5505241 279.702858,93.6861583 280.28779,94.0920779 C280.847289,94.4803488 281.221861,95.0802623 281.326592,95.7504702 L281.339193,95.8422846 L282.967247,109.661958 C283.103142,110.865497 282.358378,111.993847 281.198303,112.341985 L280.833726,112.449737 L280.833726,112.449737 L280.472262,112.555055 L280.472262,112.555055 L280.113371,112.657898 L280.113371,112.657898 L279.756518,112.758226 L279.756518,112.758226 L279.401164,112.855996 L279.401164,112.855996 L279.046772,112.951169 L279.046772,112.951169 L278.692803,113.043702 L278.692803,113.043702 L278.338722,113.133554 L278.338722,113.133554 L277.983989,113.220685 L277.983989,113.220685 L277.628067,113.305053 L277.628067,113.305053 L277.27042,113.386617 C277.210638,113.399975 277.150762,113.413214 277.090781,113.426334 L276.729535,113.503615 C276.669087,113.516254 276.608511,113.528771 276.547795,113.541167 L276.181743,113.614072 L276.181743,113.614072 L275.811814,113.684007 L275.811814,113.684007 L275.437471,113.750933 L275.437471,113.750933 L275.058176,113.814807 L275.058176,113.814807 L274.673392,113.875589 L274.673392,113.875589 L274.282581,113.933237 L274.282581,113.933237 L273.885205,113.987711 L273.885205,113.987711 L273.480726,114.038969 C273.412692,114.047241 273.344339,114.055378 273.275656,114.063379 L272.859516,114.109735 C272.789471,114.117186 272.719073,114.124498 272.648313,114.131671 L272.219302,114.173034 C272.147044,114.179647 272.074401,114.18612 272.001361,114.19245 L271.55827,114.228727 C271.334254,114.246008 271.106466,114.261998 270.874604,114.276673 L270.405357,114.304266 C270.167928,114.31718 269.926223,114.328764 269.679939,114.338995 L269.181177,114.357647 C269.097002,114.360453 269.012297,114.363107 268.927049,114.365608 L268.408964,114.378772 C268.321503,114.380658 268.233476,114.382389 268.144873,114.383965 L267.606257,114.391548 L267.606257,114.391548 L267.053281,114.395838 C266.959892,114.395838 266.865882,114.395838 266.77124,114.395838 C250.783688,114.395838 244.00491,103.787796 243.870933,90.6281783 L243.868904,90.2286293 L243.868904,58.9418153 L238.280296,58.9418153 C237.620736,58.9426476 236.987951,58.6810069 236.521571,58.2146272 C236.07851,57.7715665 235.820976,57.1783246 235.79633,56.5546179 L235.794381,56.4559021 L235.794381,44.527276 C235.794381,43.8674285 236.055093,43.2343221 236.521382,42.7674456 C236.964357,42.3239129 237.557587,42.0649765 238.181539,42.0401922 L238.280296,42.0382319 L243.868904,42.0382319 L243.868904,26.8816757 C243.868072,26.2221157 244.129713,25.5893303 244.596093,25.1229506 C245.039153,24.6798899 245.632395,24.4223555 246.256102,24.3977097 L246.354818,24.3957605 L261.348568,24.3957605 Z M480.155891,40.1534464 C501.366209,40.1534464 511.790509,53.6643541 511.996874,72.4838856 L512,73.0557909 L512,80.5886713 C511.98997,81.931024 510.924932,83.0216832 509.592753,83.0727836 L509.514087,83.0745845 L464.523442,83.0745845 C464.438502,83.0710442 464.353832,83.0626818 464.269841,83.0495375 C465.73509,92.651925 470.976171,96.9161741 480.155891,96.9161741 C488.180318,96.9161741 491.561661,93.4565594 493.368175,88.9574949 C493.832875,87.8018492 495.073462,87.1670716 496.276622,87.4564079 L496.355028,87.476592 L508.978708,91.0426563 C509.636939,91.2334333 510.188251,91.6855892 510.504165,92.2937531 C510.820079,92.9019169 510.872999,93.612965 510.650594,94.2611938 C506.768311,105.748367 497.657471,114.254949 479.864719,114.254949 C458.878478,114.254949 444.207207,102.104031 444.207207,78.6882314 C444.207207,54.3832642 457.56038,40.1534464 480.155891,40.1534464 Z M433.527799,42.081924 C434.187359,42.081924 434.820144,42.3428726 435.286524,42.8092523 C435.752904,43.275632 436.014544,43.9084174 436.013716,44.5679773 L436.013716,109.843549 C436.013716,111.216481 434.900731,112.329462 433.527799,112.329462 L418.383766,112.329462 C417.01387,112.320938 415.90497,111.213433 415.894722,109.843549 L415.894722,44.5679773 C415.894722,43.9054045 416.159188,43.2702391 416.629458,42.8034962 C417.099728,42.3367533 417.736866,42.0770573 418.39942,42.081924 L433.527799,42.081924 Z M182.193837,21.4308238 C182.853397,21.4308238 183.486182,21.6916342 183.952562,22.1580139 C184.418942,22.6243936 184.680582,23.257179 184.67975,23.9167389 L184.67975,50.4227099 C184.705503,51.2650076 185.289016,51.9870889 186.107144,52.1890687 C186.925272,52.3910485 187.777794,52.0234967 188.19259,51.2899617 C192.403614,43.2874503 199.050457,40.2285873 207.109324,40.1158759 C219.213279,39.9436779 229.025435,49.9624715 229.025435,62.0695575 L229.025435,109.834156 C229.025435,110.493461 228.763527,111.125763 228.297328,111.591962 C227.831129,112.058161 227.198827,112.320167 226.539522,112.320167 L211.536379,112.320167 C210.163447,112.320167 209.050466,111.207088 209.050466,109.834156 L209.050466,71.1021261 C209.050466,63.8353698 205.819405,58.3500803 197.466235,58.3500803 C189.391714,58.3500803 184.692274,63.0933529 184.692274,71.1021261 L184.692274,109.834156 C184.693121,110.495895 184.429763,111.130591 183.960669,111.597334 C183.491575,112.064077 182.855563,112.324242 182.193837,112.320167 L167.056066,112.320167 C166.396506,112.320167 165.763721,112.059261 165.297341,111.592881 C164.830961,111.126501 164.56932,110.493716 164.570149,109.834156 L164.570149,23.9167389 C164.56932,23.257179 164.830961,22.6243936 165.297341,22.1580139 C165.763721,21.6916342 166.396506,21.4308238 167.056066,21.4308238 L182.193837,21.4308238 Z M373.189614,58.3406877 C363.944146,58.3406877 358.515212,64.7120143 358.515212,76.2743283 L358.515212,77.6080802 C358.515212,89.0201123 363.944146,96.1334558 373.189614,96.1334558 C383.167706,96.1334558 387.716865,89.0201123 387.716865,76.8660633 C387.716865,65.1597291 383.314857,58.3406877 373.189614,58.3406877 Z M479.570417,56.9004861 C470.854443,56.9004861 465.73483,60.9694081 464.354361,70.6930271 L464.313673,70.9894147 L493.659346,70.9894147 C493.070742,61.6437587 488.521583,56.9004861 479.570417,56.9004861 Z M426.480204,11.7783443 C429.5307,11.7783443 432.455039,12.9958223 434.604116,15.16077 C436.714118,17.2863549 437.905397,20.1525279 437.926697,23.1430835 L437.926697,23.3093496 C437.880232,29.598024 432.76905,34.6712877 426.480204,34.6712877 L425.412576,34.6712877 C422.36208,34.6712877 419.43774,33.4538097 417.288664,31.288862 C415.178662,29.1632771 413.987382,26.2971041 413.966082,23.3065485 L413.966082,23.1402824 C414.012548,16.851608 419.12373,11.7783443 425.412576,11.7783443 L426.480204,11.7783443 Z"></path>
        <path d="M123.490773,31.9724752 C123.361602,14.1859856 108.524395,0 90.7379054,0 L32.7823151,0 C15.130453,0 0.346470662,13.9636936 0.0052055034,31.6218174 C-0.150162248,40.2764416 3.17796458,48.6306422 9.24191472,54.807629 C15.3058649,60.9846159 23.5971801,64.4664528 32.2531975,64.4709371 L58.1455173,64.4709371 C59.0134316,64.4967056 59.7505918,65.1139449 59.9284572,65.963829 C60.1063226,66.8137131 59.6785398,67.674754 58.893796,68.046394 L19.2005879,85.4446554 C7.45934467,90.6494089 -0.0788580156,102.320037 0.0052055034,115.162902 C0.139833043,132.952522 14.9676476,147.151032 32.760399,147.151032 L46.3421261,147.151032 C64.2601123,147.151032 79.1787222,132.780324 79.1505444,114.862338 C79.1139209,101.735325 71.1313808,89.9379009 58.9595443,85.0219875 C58.26899,84.7371326 57.8158897,84.066741 57.8090618,83.3197732 C57.802234,82.5728053 58.2430038,81.894243 58.9282356,81.5968124 L104.325894,61.6907218 C116.055445,56.4771864 123.580311,44.8081735 123.490773,31.9724752 Z"></path>
    </g>
</svg>

<svg preserveAspectRatio="xMidYMid" viewBox="0 0 512 148" xmlns="http://www.w3.org/2000/svg">
  <path d="M382.14 40.1c16.729 0 25.386 13.776 25.386 36.606 0 23.726-8.96 37.655-25.824 37.655-8.92 0-15.5-3.419-19.683-11.227a1.879 1.879 0 0 0-3.504.89v25.932a2.483 2.483 0 0 1-2.486 2.486h-15.128a2.487 2.487 0 0 1-2.505-2.486V44.524a2.505 2.505 0 0 1 2.505-2.486h15.128a2.486 2.486 0 0 1 2.486 2.486v5.933c0 1.92 2.57 2.599 3.491.914 4.302-7.877 11.155-11.27 20.135-11.27ZM261.35 24.396a2.486 2.486 0 0 1 2.484 2.408l.001.078v15.156h28.332V26.882a2.483 2.483 0 0 1 2.387-2.484l.099-.002h14.997a2.486 2.486 0 0 1 2.481 2.408l.001.078v15.156h15.864a2.505 2.505 0 0 1 2.485 2.412l.001.077v11.929a2.486 2.486 0 0 1-2.408 2.485H312.13v27.43c0 5.636 2.054 8.303 8.075 8.303 1.813 0 3.78-.36 5.6-.774l.517-.12.254-.06a2.486 2.486 0 0 1 3.046 2.03l.013.092 1.628 13.82a2.505 2.505 0 0 1-1.769 2.68l-.364.108-.362.105-.359.103-.357.1-.355.098-.354.095-.354.093-.354.09-.355.087-.356.084-.358.082-.18.04-.36.077-.183.037-.366.073-.37.07-.374.067-.38.064-.384.06-.391.058-.398.055-.404.051-.205.024-.416.047-.212.022-.429.041-.218.02-.443.036a49.75 49.75 0 0 1-.684.048l-.47.027a51.19 51.19 0 0 1-.725.035l-.499.019-.254.008-.519.013-.264.005-.539.008-.553.004h-.282c-15.984 0-22.763-10.608-22.897-23.768l-.002-.4V58.943h-28.332v27.43c0 5.635 2.054 8.302 8.075 8.302 1.814 0 3.78-.36 5.601-.774l.516-.12.254-.06a2.486 2.486 0 0 1 3.047 2.03l.012.092 1.628 13.82a2.505 2.505 0 0 1-1.769 2.68l-.364.108-.362.105-.359.103-.356.1-.356.098-.354.095-.354.093-.354.09-.355.087-.356.084-.358.082-.18.04-.36.077-.182.037-.366.073-.37.07-.375.067-.379.064-.385.06-.39.058-.398.055-.404.051a41.11 41.11 0 0 1-.205.024l-.416.047-.212.022-.429.041a45.43 45.43 0 0 1-.218.02l-.443.036a62.86 62.86 0 0 1-.683.048l-.47.027a51.19 51.19 0 0 1-.725.035l-.499.019-.254.008-.518.013-.264.005-.539.008-.553.004h-.282c-15.987 0-22.766-10.608-22.9-23.768l-.002-.4V58.943h-5.589a2.483 2.483 0 0 1-2.484-2.387l-.002-.1V44.528a2.49 2.49 0 0 1 2.388-2.487l.098-.002h5.589V26.882a2.483 2.483 0 0 1 2.387-2.484l.099-.002h14.994Zm218.807 15.757c21.21 0 31.635 13.511 31.84 32.33l.004.573v7.533a2.505 2.505 0 0 1-2.407 2.484l-.079.002h-44.99a2.245 2.245 0 0 1-.254-.025c1.465 9.602 6.706 13.866 15.886 13.866 8.024 0 11.406-3.46 13.212-7.959a2.505 2.505 0 0 1 2.909-1.5l.078.02 12.624 3.566a2.505 2.505 0 0 1 1.672 3.218c-3.883 11.487-12.994 19.994-30.786 19.994-20.987 0-35.658-12.151-35.658-35.567 0-24.305 13.353-38.535 35.949-38.535Zm-46.628 1.929a2.486 2.486 0 0 1 2.486 2.486v65.276a2.486 2.486 0 0 1-2.486 2.485h-15.144a2.505 2.505 0 0 1-2.49-2.485V44.568a2.486 2.486 0 0 1 2.505-2.486h15.129ZM182.194 21.43a2.486 2.486 0 0 1 2.486 2.486v26.506a1.879 1.879 0 0 0 3.513.867c4.21-8.003 10.857-11.061 18.916-11.174 12.104-.172 21.916 9.846 21.916 21.954v47.764a2.486 2.486 0 0 1-2.485 2.486h-15.004a2.486 2.486 0 0 1-2.486-2.486V71.102c0-7.267-3.23-12.752-11.584-12.752-8.074 0-12.774 4.743-12.774 12.752v38.732a2.483 2.483 0 0 1-2.498 2.486h-15.138a2.486 2.486 0 0 1-2.486-2.486V23.917a2.483 2.483 0 0 1 2.486-2.486h15.138ZM373.19 58.34c-9.246 0-14.675 6.371-14.675 17.933v1.334c0 11.412 5.43 18.525 14.675 18.525 9.978 0 14.527-7.113 14.527-19.267 0-11.706-4.402-18.525-14.527-18.525Zm106.38-1.44c-8.716 0-13.835 4.068-15.216 13.792l-.04.296h29.345c-.588-9.345-5.137-14.089-14.089-14.089Zm-53.09-45.123a11.447 11.447 0 0 1 11.447 11.365v.166c-.047 6.289-5.158 11.362-11.447 11.362h-1.067a11.447 11.447 0 0 1-11.447-11.364v-.167c.047-6.288 5.158-11.362 11.447-11.362h1.067Z"/>
  <path d="M123.49 31.972C123.363 14.186 108.525 0 90.739 0H32.782C15.13 0 .346 13.964.005 31.622A32.27 32.27 0 0 0 32.253 64.47h25.893a1.879 1.879 0 0 1 .748 3.575L19.2 85.445A32.276 32.276 0 0 0 .005 115.163c.135 17.79 14.963 31.988 32.755 31.988h13.582c17.918 0 32.837-14.37 32.809-32.289a32.28 32.28 0 0 0-20.191-29.84 1.86 1.86 0 0 1-.032-3.425l45.398-19.906a32.275 32.275 0 0 0 19.165-29.719Z"/>
</svg>
